X:47
T:Grand Swaine,The. JJo.047
T:Chester Castle,aka. JJo.047
T:Grants Whim,aka. JJo.047
S:J.Jones MS,1801,N.Shrops.
N:First 4 notes of bar 3 missing in MS. Tune well known enough
N:to be able to correct this. Called Chester Castle in Aird Vol2, it is
N:known as Grant’s Whim in the Clews MS, which originates from the same
N:period and region as this MS. Sounds like one musician misheard the other
N:when asking for the title! The Clews version is undotted. NeilB
A:N Shropshire
Z:Neil Brookes 2006
M:4/4
L:1/8
Q:1/4=160
K:D
F>G|A3d A>FD>F|A>F d>B A>FD>F|G>BG>E F>AF>D|E2E>EE2|!
A>G| A>DF>Ad3f|e>dc>BA2 B>c|d2c>Bc3B|A2A>AA2::!
c>d|e3a e>cA>c|e>ca>f e>cA>c|d>fe>d c>ed>c|B2B>BB2A/B/c|!
d3B A>FD>F|G>AB>c d2c>B|A2G>F E>GF>E|D2D>DD2:|

